X: 2016
T: Fox on the Rock
R: jig
C: Rick Gagne
N: 1987 on tenor banjo
M: 6/8
Q: 1/4=165
K: Ador
c | "Am"Ace age | Ace "G"dBG | "Am"A2A cBA | "C"cec "G"d2B | 
"Am"Ace age | Ace "G"dBG | "Am"A2A cBA | "G"GEG "D"D2 :|
K: D
c | "D"dAA "G"BAG | "D"Ade fed | "A5"eag "C"ed=c | "D"AdA "C"=cA^c | 
"D"dAA "G"BAG | "D"Ade fed | "A5"eag "C"ed=c | "D"dfe de :|
